X:227
T:Coen's Memories
T:Tommy Coen's
T:Cottage in the Grove, The
R:reel
C:Tommy Coen (1910-1974)
D:De Danann: The Mist Covered Mountain
D:Music at Matt Molloy's
Z:id:hn-reel-227
M:C|
K:Edor
F|EDB,A, B,EFA|~B2eB dBAF|DEFD EFDB,|A,B,DF EDB,D|
E2~E2 DEFA|~B2eB dBAF|DEFA dBAF|1 DEFD ~E3:|2 DEFD ~E3A||
|:Be~e2 fedB|~e2fe dBAF|~A3B d2fd|edef dB{c}BA|
Be~e2 fedB|~e2fe dBAF|DEFA dBAF|1 DEFD ~E2EA:|2 DEFD ~E3||
